!!! OTL: Literature134
!!! Chapter: 5
!!! Section: IV
!!! Page: 376
!!! Mode: 
!!! Encoder: DJB
**kern
*staff1
*I"Piano
=1-
*clefC3
*k[f#c#g#d#]
*E:
*M6/8
4.r
8r
8r
8B/
=2
4B/
8g#\
4f##\
8B/
=3
4B/
8g#\
4f##\
8c#\
=4
8B\L
8e\
8g#\J
4b\
8a\
=5
8a\
4g#\
8r
8r
8g#\
=6
8b\L
8g#\
8a#\J
4f#\
8g#\
=7
8b\L
8g#\
8a#\J
4f#\
8d#\
=8
8c#\L
8f#\
8d#\J
8c#\L
8f#\
8d#\J
=9
!!linebreak:original
8c#\
4B/
8r
8r
8b\
=10
4cc#\
8e#\
4f#\
8g#\
=11
4a\
8a#\
4b\
8b#\
=12
8cc#\L
8e#\
8f#\J
8cc#\L
8e#\
8f#\J
=13
8cc#\
4b\
8r
8r
8e\
=14
8ee\L
8cc#\
8dd#\J
4b\
8cc#\
=15
8ee\L
8cc#\
8dd#\J
4b\
8g#\
=16
!!linebreak:original
8f#\L
8b\
8g#\J
8f#\L
8b\
8g#\J
=17
8f#\
4e\
8r
4r
==
*-
